X:105
T: Pete & Bill's Excellent Reel
C: P.Fitzgerald / B.McComiskey
Z: B.Black
R: reel
M: 4/4
L: 1/8
K: D
A | d2 Ad BAFB | A2 FA Beef | d2 AF DFAd |\
ceag fdec |
d2 Ad BAFB | A2 FA Beef | dfaf gfed |\
ceag fd d :|
e | fd d2 fgaf | gfed cded | BA A2 FDEG |\
F2 cF dFce |
d2 AF ADFG | BA (3Bcd egfe | dfaf gfed |\
ceag fd d :|
